assets/img/braze_icons/file-download-01.svg

<svg fill="none" height="24" viewBox="0 0 24 24" width="24" xmlns="http://www.w3.org/2000/svg"><g fill="#801ed7"><path d="m20 16c0-.5523-.4477-1-1-1s-1 .4477-1 1v3.5858l-1.2929-1.2929c-.3905-.3905-1.0237-.3905-1.4142 0s-.3905 1.0237 0 1.4142l3 3c.1875.1875.4419.2929.7071.2929s.5196-.1054.7071-.2929l3-3c.3905-.3905.3905-1.0237 0-1.4142s-1.0237-.3905-1.4142 0l-1.2929 1.2929z"/><path d="m15.2413 1h-6.4826c-.80496-.000012-1.46933-.000022-2.01052.04419-.5621.04593-1.07881.14449-1.56414.39179-.75265.38349-1.36457.99541-1.74806 1.74806-.2473.48533-.34586 1.00204-.39179 1.56414-.04421.54119-.0442 1.20554-.04419 2.01051v10.48261c-.00001.805-.00002 1.4693.04419 2.0105.04593.5621.14449 1.0788.39179 1.5642.38349.7526.99541 1.3645 1.74806 1.748.48533.2473 1.00204.3459 1.56414.3918.54119.0442 1.20554.0442 2.0105.0442 1.69152 0 3.38322.0033 5.07472.0026.6025-.0003.9037-.0005 1.0439-.1203.1215-.1038.1862-.26.1736-.4194-.0145-.1838-.2277-.397-.6541-.8235l-.5181-.5181c-1.1716-1.1716-1.1716-3.071 0-4.2426.5858-.5858 1.3535-.8787 2.1213-.8787 0-1.6569 1.3431-3 3-3 .1352 0 .2682.0089.3987.0263.7766.1031 1.1649.1546 1.2862.1064.1451-.0578.1749-.0839.2513-.2201.0638-.1139.0638-.3887.0638-.9384v-5.21552c0-.80496 0-1.46931-.0442-2.0105-.0459-.5621-.1445-1.07881-.3918-1.56414-.3835-.75265-.9954-1.36457-1.748-1.74806-.4854-.2473-1.0021-.34586-1.5642-.39179-.5412-.044212-1.2055-.044202-2.0105-.04419z"/></g></svg>

<svg width="24" height="24" viewBox="0 0 24 24" fill="none" xmlns="http://www.w3.org/2000/svg">
<path d="M20 16C20 15.4477 19.5523 15 19 15C18.4477 15 18 15.4477 18 16V19.5858L16.7071 18.2929C16.3166 17.9024 15.6834 17.9024 15.2929 18.2929C14.9024 18.6834 14.9024 19.3166 15.2929 19.7071L18.2929 22.7071C18.4804 22.8946 18.7348 23 19 23C19.2652 23 19.5196 22.8946 19.7071 22.7071L22.7071 19.7071C23.0976 19.3166 23.0976 18.6834 22.7071 18.2929C22.3166 17.9024 21.6834 17.9024 21.2929 18.2929L20 19.5858V16Z" fill="#801ED7"/>
<path d="M15.2413 1H8.7587C7.95374 0.999988 7.28937 0.999978 6.74818 1.04419C6.18608 1.09012 5.66937 1.18868 5.18404 1.43598C4.43139 1.81947 3.81947 2.43139 3.43598 3.18404C3.18868 3.66937 3.09012 4.18608 3.04419 4.74818C2.99998 5.28937 2.99999 5.95372 3 6.75869V17.2413C2.99999 18.0463 2.99998 18.7106 3.04419 19.2518C3.09012 19.8139 3.18868 20.3306 3.43598 20.816C3.81947 21.5686 4.43139 22.1805 5.18404 22.564C5.66937 22.8113 6.18608 22.9099 6.74818 22.9558C7.28937 23 7.95372 23 8.75868 23C10.4502 23 12.1419 23.0033 13.8334 23.0026C14.4359 23.0023 14.7371 23.0021 14.8773 22.8823C14.9988 22.7785 15.0635 22.6223 15.0509 22.4629C15.0364 22.2791 14.8232 22.0659 14.3968 21.6394L13.8787 21.1213C12.7071 19.9497 12.7071 18.0503 13.8787 16.8787C14.4645 16.2929 15.2322 16 16 16C16 14.3431 17.3431 13 19 13C19.1352 13 19.2682 13.0089 19.3987 13.0263C20.1753 13.1294 20.5636 13.1809 20.6849 13.1327C20.83 13.0749 20.8598 13.0488 20.9362 12.9126C21 12.7987 21 12.5239 21 11.9742V6.75868C21 5.95372 21 5.28937 20.9558 4.74818C20.9099 4.18608 20.8113 3.66937 20.564 3.18404C20.1805 2.43139 19.5686 1.81947 18.816 1.43598C18.3306 1.18868 17.8139 1.09012 17.2518 1.04419C16.7106 0.999978 16.0463 0.999988 15.2413 1Z" fill="#801ED7"/>
</svg>
